X:1

T:Battle Eve, The

M:C

L:1/8

R:Air

N:”Animated”

S:O’Neill – Music of Ireland (1903), No. 253

Z:AK/Fiddler’s Companion

K:Gmin

D2|G3^F G2A2|G4 B3B|A F3 F3F|F4 ^F3F|D2G2G2A2|

B4 A2G2|D4 E4|D6 f2|f3d B2d2|f4 =e2d2|c3A F2A2|

c4 B3c|d3B c3A|D4 G3^F|G4 A4|B4 B2c2|d3d c2B2|f4 F3F|B4||

                       


BATTLE OF ARGAN MORE, THE. AKA - "Argan Mor." Irish, March or Air (4/4 time). D Dorian (?). Standard tuning. One part. A pentatonic tune. Source for notated version: the Irish collector Edward Bunting's MS notes indicate he was given the melody by "a Cushendall man in 1809, tenant to Dr. McDonnell." O'Sullivan/Bunting, 1983; No. 155, pg. 212. RCA 09026-61490-2, The Chieftains - "The Celtic Harp" (1993).

                       

BATTLE OF AUGHRIM [1], THE (Cath Eachroma). AKA and see “Lament for the Battle of Aughrim,” “Loch Torridon, Irish, March (2/4 time), Polka or Lament. E Aeolian (Brody): A Dorian (most versions). Standard tuning. One part (Brody, O'Neill): AABB (Cowdery, Mallinson, Mitchell, Sullivan, Tubridy): AA'BB (Breathnach, Harker/Rafferty, Miller & Perron). The piece is descriptive of the last great defeat of the native Gaelic army in Ireland, on July 12th, 1691, following the defeat of the Stuart forces at the Battle of the Boyne. Aughrim is located near Ballinasloe, County Galway, about 30 miles from Galway city, and is a small village. Micho Russell (1989) related a bit of folklore which had the battle seeming to go one for days and days. There is a hollow or small valley on the road outside the village which Russell maintained was “filled up with blood from the people that were killed, and ever since then it is known as Bloody Valley.” The victory of the Williamite forces over the Irish under St. Ruth and Sarsfield marked the end of the old Gaelic aristocracy and is commemorated in the present-day Orange celebration of July the 12th.

***

Cowdery (1990) finds the melody another expansion/contraction of the central musical motifs of the old ballad air "The Boyne Water." “Lament for the Battle of Aughrim” was printed in the appendix to Walker’s Historical Memoirs of the Irish Bards (1786). In 19th century Ireland the piece was a piper’s tour-de-force (along with a programmatic tune called “The Fox Chase”), and notable renditions were played by such famous musicians as County Galway’s Martin O’Reilly. Breathnach (1985) says the tune was played for the last figure of the (County Clare polka) set.

***

The “Battle of Aughrim” was the signature tune for the famous Aughrim Slopes Ceilidhe Band, originally consisting of the trio of fiddlers Jack Mulkere and Paddy Kelly and accordion player Joe Mills, who first recorded around 1936 or 1937 (Reg Hall). The tune was taught to them by accordion player Jack Fahy (fiddler and composer Paddy Fahy’s father), who hosted their thrice-weekly practice sessions (and in whose house Jack Mulkere lived). Jack’s son Paddy and daughter Jennie joined the band in the 1940’s.

***

The second strain was borrowed for the Québecois tune “En Fumant Ma Pipe.”

***

Sources for notated versions: Chieftains (Ireland) [Brody]; a Clare version from flute and whistle player Micko Russell (Doolin, Co. Clare, Ireland) [Breathnach]; piper Leo Rowsome [Cowdery]; piper Willie Clancy (1918-1973, Miltown Malbay, west Clare) [Mitchell]; fiddler Mártíin Byrnes [Miller & Perron, Sullivan]; New Jersey flute player Mike Rafferty, born in Ballinakill, Co. Galway, in 1926 [Harker]. Breathnach (CRÉ II), 1976; No. 188, pg. 64 (appears as "Cath Eachroma"); Walker (Historical Memoirs of the Irish Bards) [O’Neill/Waifs]. Breathnach (CRÉ II), 1976; No. 118. Brody (Fiddler’s Fakebook), 1983; pg. 37. Bulmer & Sharpley (Music from Ireland), 1974, vol. 2, No. 68. Cowdery (The Melodic Tradition of Ireland), 1990; Ex. 52, pg. 121. Harker (300 Tunes from Mike Rafferty), 2005; No. 275, pg. 87. Mallinson (100 Polkas), 1997; No. 32, pg. 13. Miller & Perron (Irish Traditional Fiddle Music), 1977; vol. 1, No. 65. Miller & Perron (Irish Traditional Fiddle Music), 2nd Edition, 2006; pg. 149. Mitchell (Dance Music of Willie Clancy), 1993; no. 119, pg. 98 (a march setting). O'Neill (Music of Ireland: 1850 Melodies), 1903/1979; No. 1845, pg. 347. O’Neill (Waifs and Strays of Gaelic Melody). Russell (The Piper’s Chair), 1989; pg. 20. Sullivan (Session Tunes), vol. 3; No. 37, pg. 15. Tubridy (Irish Traditional Music, Book Two), 1999; pg. 4. Claddagh CC 1, Leo Rowsome - "Ri na bPiobairi" (1969). Claddagh CC14, "Chieftains 4" (1974). Leader LEACD 2004, “Martin Byrnes” (1969).  MKM 7590, Mike McHale – “The Schoolmaster’s House” (2000. Learned from a recording by the Aughrom Slopes Ceili Band). Shanachie 79024, "Chieftains 4" (1974/1983).

See also listings at:

Alan Snyder’s Cape Breton Fiddle Recording Index

Jane Keefer’s Folk Music Index: An Index to Recorded Sources 

Alan Ng’s Irishtune.info

